X:2547
T:Father's Polka
C:anon.
O:England
R:Polka
Z:C.G.P
F:http://abc.musicaviva.com/tunes/england/fathers-polka/fathers-polka.abc
%Posted at abcusers Jan 2nd 2001 by Johnny Adams.
M:4/4
L:1/8
Q:1/4=220
K:G
GA|B2B2 BAGB|e2d2dBGB|d2c2 cAFA|c2Bc BAGA|
B2B2BAGB|e2d2 dBGB|d2c2 cAF A |G2B2G2::D2|G2Bd g3g|
f2A2A2G2|FGAc f3e|e2d2 dcBA|G2Bd g3g|f2A2A2G2|
FGAB cdef|g2G2G2::ef|g4G3A|B2A2A4|BcBc D2EF|
GABcd2ef|g4G3A|B2A2A4|BcBcD2EF|G2B2G2:|
W:
W:
W:  From Musica Viva - http://www.musicaviva.com
W:  the Internet center for free sheet music downloads.
